lib/logo_tmp/nrk-logo-nrk-p3-x-with-bg.svg

<svg width="99" height="28" viewBox="0 0 99 28" fill="none" xmlns="http://www.w3.org/2000/svg">
<rect width="98.6667" height="28" fill="#FFE100"/>
<path d="M92 21L87.1668 13.6973L91.5824 7H89.3735L86.1655 12.3312L82.6464 7H80.2189L84.7539 13.7946L80 20.9997H82.2488L85.7881 15.2459L89.592 20.9997L92 21Z" fill="black"/>
<path d="M60.7219 7.00586H56.4039C56.4039 7.00586 58.8576 11.0338 58.8852 11.0845C58.9777 11.201 59.0294 11.3447 59.0323 11.4934C59.0352 11.6421 58.9892 11.7876 58.9014 11.9076L56.4039 16.0014H60.7226C60.7226 16.0014 62.8052 12.596 63.09 12.1232C63.2251 11.9421 63.2972 11.7217 63.2951 11.4958C63.293 11.2698 63.2169 11.0508 63.0785 10.8722C62.7714 10.3491 62.7707 10.3494 60.7219 7.00586Z" fill="black"/>
<path d="M55.8459 7.00591H52V20.998H55.8459V7.00591Z" fill="black"/>
<path d="M74.2476 9.32389C74.1024 9.07632 72.8171 7.00586 72.8171 7.00586H63.574L65.5931 10.3925H70.4616L68.4533 13.6847L70.692 17.446L68.5314 20.997H72.4774C73.1118 19.9593 74.0603 18.354 74.2585 18.0251C74.3944 17.8434 74.4668 17.622 74.4648 17.395C74.4627 17.1681 74.3862 16.9481 74.2469 16.7688C74.0494 16.4317 72.9926 14.7557 72.3612 13.7239C72.3612 13.7239 74.0603 10.9084 74.2585 10.5795C74.3943 10.3979 74.4668 10.1767 74.4648 9.94988C74.4629 9.72307 74.3865 9.50316 74.2476 9.32389Z" fill="black"/>
<path d="M65.3567 14.1394C64.7483 15.133 63.731 16.7981 63.5404 17.1228C63.4063 17.2954 63.3325 17.5073 63.3305 17.726C63.3285 17.9446 63.3983 18.1578 63.5292 18.333C63.7201 18.6497 64.7453 20.328 65.3567 21.3289C65.9677 20.329 66.9933 18.6507 67.1839 18.333C67.3148 18.1578 67.3846 17.9446 67.3826 17.726C67.3806 17.5074 67.307 17.2955 67.173 17.1228C66.9824 16.7981 65.9648 15.133 65.3567 14.1394Z" fill="black"/>
<path d="M6.66663 21.0001V7.00135H11.26V21.0001H6.66663ZM17.5094 9.22932L20.151 21.0001H15.124L11.9697 7.00135H14.7892C15.4357 6.99296 16.063 7.22087 16.5535 7.6422C17.0449 8.04586 17.3824 8.60623 17.5094 9.22932ZM20.8411 21.0001V7.00135H25.4345V21.0001H20.8411ZM28.9038 12.3249C28.4089 12.3297 27.9218 12.2002 27.4946 11.9502C27.073 11.7066 26.7229 11.3564 26.4793 10.9348C26.229 10.5075 26.0995 10.0203 26.1044 9.52512C26.0988 9.03295 26.2284 8.54869 26.4793 8.12525C26.7255 7.70824 27.0752 7.36186 27.4946 7.11969C27.922 6.87 28.4089 6.74052 28.9038 6.74503C29.3959 6.73973 29.8799 6.86933 30.3035 7.11969C30.7187 7.36398 31.0647 7.71007 31.309 8.12525C31.5596 8.54881 31.6892 9.03299 31.6838 9.52512C31.6884 10.0203 31.5589 10.5073 31.309 10.9348C31.0673 11.3545 30.7209 11.7044 30.3035 11.9502C29.8799 12.2011 29.3955 12.3307 28.9032 12.3249H28.9038ZM32.3935 21.0001V7.00135H36.9873V21.0001H32.3935ZM42.8027 14.6514C42.8156 14.6649 42.9141 14.8259 43.0983 15.1344C43.2826 15.4429 43.5224 15.8372 43.8179 16.3174C44.1136 16.7974 44.4257 17.3067 44.754 17.8454C45.0824 18.3841 45.3913 18.8935 45.6809 19.3735C45.9694 19.8535 46.298 20.3957 46.6666 21.0001H41.6198C41.3041 20.4875 41.0181 20.0241 40.7618 19.6101C40.5056 19.196 40.2331 18.7491 39.9444 18.2693C39.6551 17.79 39.369 17.3234 39.0862 16.8695C38.8034 16.4155 38.5604 16.018 38.3571 15.6766C38.153 15.3351 38.0116 15.1051 37.9329 14.9865C37.7379 14.6924 37.6225 14.3528 37.5981 14.0007C37.6176 13.6628 37.7263 13.3362 37.9132 13.054C37.992 12.9226 38.1366 12.6892 38.3469 12.3541C38.5572 12.0189 38.8036 11.6213 39.0862 11.1613C39.3688 10.7012 39.6549 10.2313 39.9444 9.75152C40.234 9.27175 40.5064 8.82152 40.7618 8.4009C41.0186 7.98072 41.3046 7.5141 41.6198 7.00103H46.6666L42.7629 13.3695C42.6421 13.5586 42.574 13.7765 42.5657 14.0007C42.5787 14.2361 42.6609 14.4625 42.8019 14.6514H42.8027Z" fill="black"/>
</svg>

<svg xmlns="http://www.w3.org/2000/svg" viewBox="0 0 99 28"><path fill="#FFE100" d="M0 0h98.667v28H0z"/><path fill="#000" d="m92 21-4.833-7.303L91.582 7h-2.208l-3.209 5.331L82.646 7H80.22l4.535 6.795L80 21h2.249l3.54-5.754L89.591 21H92ZM60.722 7.006h-4.318s2.454 4.028 2.481 4.079a.679.679 0 0 1 .016.823L56.404 16h4.319s2.082-3.405 2.367-3.878a1.033 1.033 0 0 0-.012-1.25c-.307-.524-.307-.524-2.356-3.867ZM55.846 7.006H52v13.992h3.846V7.006ZM74.248 9.324a381.01 381.01 0 0 0-1.43-2.318h-9.244l2.02 3.386h4.868l-2.009 3.293 2.239 3.761-2.16 3.551h3.945c.635-1.038 1.583-2.643 1.781-2.972a1.037 1.037 0 0 0-.011-1.256c-.198-.337-1.254-2.013-1.886-3.045 0 0 1.7-2.816 1.897-3.145a1.036 1.036 0 0 0-.01-1.255Z"/><path fill="#000" d="M65.357 14.14c-.609.993-1.626 2.658-1.817 2.983a.998.998 0 0 0-.01 1.21c.19.317 1.215 1.995 1.827 2.996.61-1 1.636-2.678 1.827-2.996a.999.999 0 0 0-.011-1.21c-.19-.325-1.208-1.99-1.816-2.984ZM6.667 21V7.001h4.593v14H6.667ZM17.509 9.23 20.151 21h-5.027L11.97 7.001h2.82a2.655 2.655 0 0 1 1.764.641c.49.404.828.964.955 1.587ZM20.841 21V7.001h4.593v14h-4.593Zm8.063-8.675a2.738 2.738 0 0 1-1.41-.375 2.777 2.777 0 0 1-1.015-1.015 2.735 2.735 0 0 1-.375-1.41 2.686 2.686 0 0 1 .375-1.4 2.812 2.812 0 0 1 3.825-1.005c.415.244.76.59 1.005 1.005.25.424.38.908.375 1.4.004.495-.125.982-.375 1.41a2.8 2.8 0 0 1-1.006 1.015c-.423.251-.908.38-1.4.375ZM32.394 21V7.001h4.593v14h-4.593Zm10.409-6.349c.013.014.111.175.295.483.185.309.424.703.72 1.183a373.133 373.133 0 0 1 1.863 3.056c.288.48.617 1.023.986 1.627H41.62a712.71 712.71 0 0 0-.858-1.39 127.3 127.3 0 0 1-.818-1.34c-.289-.48-.575-.947-.858-1.4a71.117 71.117 0 0 1-.729-1.193 20.869 20.869 0 0 0-.424-.69 2.039 2.039 0 0 1-.335-.986c.02-.338.128-.665.315-.947.079-.131.224-.365.434-.7a209.23 209.23 0 0 0 1.598-2.603c.289-.48.561-.93.817-1.35L41.62 7h5.047l-3.904 6.369c-.12.189-.189.407-.197.63.013.236.095.463.236.651Z"/></svg>
